img/header/telegram.svg

<svg width="40" height="40" viewBox="0 0 40 40" fill="none" xmlns="http://www.w3.org/2000/svg">
<g filter="url(#filter0_d)">
<path d="M20 32C23.1826 32 26.2348 30.7357 28.4853 28.4853C30.7357 26.2348 32 23.1826 32 20C32 16.8174 30.7357 13.7652 28.4853 11.5147C26.2348 9.26428 23.1826 8 20 8C16.8174 8 13.7652 9.26428 11.5147 11.5147C9.26428 13.7652 8 16.8174 8 20C8 23.1826 9.26428 26.2348 11.5147 28.4853C13.7652 30.7357 16.8174 32 20 32ZM20 35C11.7155 35 5 28.2845 5 20C5 11.7155 11.7155 5 20 5C28.2845 5 35 11.7155 35 20C35 28.2845 28.2845 35 20 35ZM15.335 21.755L11.588 20.5865C10.778 20.339 10.7735 19.781 11.7695 19.3805L26.369 13.7405C27.2165 13.3955 27.6965 13.832 27.422 14.9255L24.9365 26.6555C24.7625 27.491 24.26 27.6905 23.5625 27.305L19.736 24.473L17.9525 26.195C17.7695 26.372 17.621 26.5235 17.339 26.561C17.0585 26.6 16.8275 26.516 16.658 26.051L15.353 21.7445L15.335 21.7565V21.755Z" fill="url(#paint0_linear)"/>
</g>
<defs>
<filter id="filter0_d" x="0" y="0" width="40" height="40" filterUnits="userSpaceOnUse" color-interpolation-filters="sRGB">
<feFlood flood-opacity="0" result="BackgroundImageFix"/>
<feColorMatrix in="SourceAlpha" type="matrix" values="0 0 0 0 0 0 0 0 0 0 0 0 0 0 0 0 0 0 127 0"/>
<feOffset/>
<feGaussianBlur stdDeviation="2.5"/>
<feColorMatrix type="matrix" values="0 0 0 0 1 0 0 0 0 1 0 0 0 0 1 0 0 0 1 0"/>
<feBlend mode="normal" in2="BackgroundImageFix" result="effect1_dropShadow"/>
<feBlend mode="normal" in="SourceGraphic" in2="effect1_dropShadow" result="shape"/>
</filter>
<linearGradient id="paint0_linear" x1="5" y1="5" x2="35" y2="27.5" gradientUnits="userSpaceOnUse">
<stop stop-color="#0024E0"/>
<stop offset="1" stop-color="#00B5CE"/>
</linearGradient>
</defs>
</svg>

<svg width="40" height="40" fill="none" xmlns="http://www.w3.org/2000/svg"><g filter="url(#prefix__a)"><path d="M20 32a12 12 0 1 0 0-24 12 12 0 0 0 0 24zm0 3c-8.284 0-15-6.715-15-15 0-8.284 6.716-15 15-15 8.285 0 15 6.716 15 15 0 8.285-6.715 15-15 15zm-4.665-13.245-3.747-1.168c-.81-.248-.814-.806.182-1.206l14.599-5.64c.848-.345 1.328.091 1.053 1.184l-2.486 11.73c-.174.836-.676 1.035-1.373.65l-3.827-2.832-1.784 1.722c-.183.177-.331.328-.613.366-.28.039-.511-.045-.681-.51l-1.305-4.306-.018.011v-.001z" fill="url(#prefix__b)"/></g><defs><linearGradient id="prefix__b" x1="5" y1="5" x2="35" y2="27.5" gradientUnits="userSpaceOnUse"><stop stop-color="#0024E0"/><stop offset="1" stop-color="#00B5CE"/></linearGradient><filter id="prefix__a" x="0" y="0" width="40" height="40" filterUnits="userSpaceOnUse" color-interpolation-filters="sRGB"><feFlood flood-opacity="0" result="BackgroundImageFix"/><feColorMatrix in="SourceAlpha" values="0 0 0 0 0 0 0 0 0 0 0 0 0 0 0 0 0 0 127 0"/><feOffset/><feGaussianBlur stdDeviation="2.5"/><feColorMatrix values="0 0 0 0 1 0 0 0 0 1 0 0 0 0 1 0 0 0 1 0"/><feBlend in2="BackgroundImageFix" result="effect1_dropShadow"/><feBlend in="SourceGraphic" in2="effect1_dropShadow" result="shape"/></filter></defs></svg>
